X:16
T:Canevas
R:jig
C:Yvan Rivierre
M:6/8
L:1/8
Q:3/8=111
K:G dorian
|: DFG AGF | GAB c2A | BAG FGA | GFD C2F |
DFG AGF | GAB cAA | BAG FGA | GAF G2F :|
GG/G/G BGG | cGG BGG | F2G AFB | cBc AFD |
G2G BGG | cGG BGG | F2G A2B | cAF G2F :|
